X:110
U: ~ = !turn!
%%topmargin 3cm
T:Lads of Laoise
B:Traditional Irish Fiddle Tunes. Randy Miller and Jack Perron.
S:Andy McGann
Z:Transcribed by Ralph Palmer
R:Reel
M:C|
L:1/8
K:G
F |: EB, (3{/C}(B,A,B,) EGFE | DA, (3{/B,}(A,G,A,) DEFA | GE{/F}ED EFGA | B2 eB JdBAF |
((3EDE) B,E GEB,E | ((3DED) A,D FDA,D | ((3Bcd) eB dBAF | DEFA B2AF ::
eB (3{/c}(BAB) egfe | d2 fa gfed | ((3Bcd) ef {/a}gfge | ef ((3agf) gfed |
"(A"x[|] efed BAFA | BE (3{/F}(EDE) Bdef "A)"| g3 a f3 d | efed BAFB :|]
x8 "(A"| eB (3{/c}(BAB) GBFB | EB{/c}BA Bdef "A)"| x8 [|] x8[|] x8 [|]
